images/logo.svg

<svg viewBox="0 0 142 58" fill="none" xmlns="http://www.w3.org/2000/svg">
    <path d="M13.7836 0.695999C16.2156 0.695999 18.317 1.15467 20.0876 2.072C21.8796 2.968 23.245 4.25867 24.1836 5.944C25.1436 7.62933 25.6236 9.61333 25.6236 11.896C25.6236 14.1787 25.1436 16.1627 24.1836 17.848C23.245 19.512 21.8796 20.792 20.0876 21.688C18.317 22.5627 16.2156 23 13.7836 23H6.83963V0.695999H13.7836ZM13.7836 20.6C16.6636 20.6 18.861 19.8427 20.3756 18.328C21.8903 16.792 22.6476 14.648 22.6476 11.896C22.6476 9.12267 21.8796 6.95733 20.3436 5.4C18.829 3.84267 16.6423 3.064 13.7836 3.064H9.75163V20.6H13.7836ZM35.2566 0.695999V23H32.3446V0.695999H35.2566ZM59.9956 7.16C59.377 5.85867 58.481 4.856 57.3076 4.152C56.1343 3.42667 54.769 3.064 53.2116 3.064C51.6543 3.064 50.2463 3.42667 48.9876 4.152C47.7503 4.856 46.769 5.88 46.0436 7.224C45.3396 8.54667 44.9876 10.0827 44.9876 11.832C44.9876 13.5813 45.3396 15.1173 46.0436 16.44C46.769 17.7627 47.7503 18.7867 48.9876 19.512C50.2463 20.216 51.6543 20.568 53.2116 20.568C55.3876 20.568 57.1796 19.9173 58.5876 18.616C59.9956 17.3147 60.817 15.5547 61.0516 13.336H52.1556V10.968H64.1556V13.208C63.985 15.0427 63.409 16.728 62.4276 18.264C61.4463 19.7787 60.1556 20.984 58.5556 21.88C56.9556 22.7547 55.1743 23.192 53.2116 23.192C51.1423 23.192 49.2543 22.712 47.5476 21.752C45.841 20.7707 44.4863 19.416 43.4836 17.688C42.5023 15.96 42.0116 14.008 42.0116 11.832C42.0116 9.656 42.5023 7.704 43.4836 5.976C44.4863 4.22667 45.841 2.872 47.5476 1.912C49.2543 0.930665 51.1423 0.439999 53.2116 0.439999C55.5796 0.439999 57.6703 1.02667 59.4836 2.2C61.3183 3.37333 62.6516 5.02667 63.4836 7.16H59.9956ZM73.7979 0.695999V23H70.8859V0.695999H73.7979ZM95.3689 0.695999V3.064H89.2889V23H86.3769V3.064H80.2649V0.695999H95.3689ZM115.017 18.04H105.289L103.497 23H100.425L108.489 0.823999H111.849L119.881 23H116.809L115.017 18.04ZM114.185 15.672L110.153 4.408L106.121 15.672H114.185ZM129.188 20.632H136.996V23H126.276V0.695999H129.188V20.632Z" fill="black" />
    <path d="M15.0574 52.04H5.32938L3.53738 57H0.465378L8.52938 34.824H11.8894L19.9214 57H16.8494L15.0574 52.04ZM14.2254 49.672L10.1934 38.408L6.16138 49.672H14.2254ZM43.2119 41.16C42.5932 39.8587 41.6972 38.856 40.5239 38.152C39.3505 37.4267 37.9852 37.064 36.4279 37.064C34.8705 37.064 33.4625 37.4267 32.2039 38.152C30.9665 38.856 29.9852 39.88 29.2599 41.224C28.5559 42.5467 28.2039 44.0827 28.2039 45.832C28.2039 47.5813 28.5559 49.1173 29.2599 50.44C29.9852 51.7627 30.9665 52.7867 32.2039 53.512C33.4625 54.216 34.8705 54.568 36.4279 54.568C38.6039 54.568 40.3959 53.9173 41.8039 52.616C43.2119 51.3147 44.0332 49.5547 44.2679 47.336H35.3719V44.968H47.3719V47.208C47.2012 49.0427 46.6252 50.728 45.6439 52.264C44.6625 53.7787 43.3719 54.984 41.7719 55.88C40.1719 56.7547 38.3905 57.192 36.4279 57.192C34.3585 57.192 32.4705 56.712 30.7639 55.752C29.0572 54.7707 27.7025 53.416 26.6999 51.688C25.7185 49.96 25.2279 48.008 25.2279 45.832C25.2279 43.656 25.7185 41.704 26.6999 39.976C27.7025 38.2267 29.0572 36.872 30.7639 35.912C32.4705 34.9307 34.3585 34.44 36.4279 34.44C38.7959 34.44 40.8865 35.0267 42.6999 36.2C44.5345 37.3733 45.8679 39.0267 46.6999 41.16H43.2119ZM57.0141 37.064V44.52H65.1421V46.92H57.0141V54.6H66.1021V57H54.1021V34.664H66.1021V37.064H57.0141ZM90.9244 57H88.0124L76.3004 39.24V57H73.3884V34.664H76.3004L88.0124 52.392V34.664H90.9244V57ZM97.6804 45.832C97.6804 43.656 98.171 41.704 99.1524 39.976C100.134 38.2267 101.467 36.8613 103.152 35.88C104.859 34.8987 106.747 34.408 108.816 34.408C111.248 34.408 113.371 34.9947 115.184 36.168C116.998 37.3413 118.32 39.0053 119.152 41.16H115.664C115.046 39.816 114.15 38.7813 112.976 38.056C111.824 37.3307 110.438 36.968 108.816 36.968C107.259 36.968 105.862 37.3307 104.624 38.056C103.387 38.7813 102.416 39.816 101.712 41.16C101.008 42.4827 100.656 44.04 100.656 45.832C100.656 47.6027 101.008 49.16 101.712 50.504C102.416 51.8267 103.387 52.8507 104.624 53.576C105.862 54.3013 107.259 54.664 108.816 54.664C110.438 54.664 111.824 54.312 112.976 53.608C114.15 52.8827 115.046 51.848 115.664 50.504H119.152C118.32 52.6373 116.998 54.2907 115.184 55.464C113.371 56.616 111.248 57.192 108.816 57.192C106.747 57.192 104.859 56.712 103.152 55.752C101.467 54.7707 100.134 53.416 99.1524 51.688C98.171 49.96 97.6804 48.008 97.6804 45.832ZM141.983 34.696L134.719 48.584V57H131.807V48.584L124.511 34.696H127.743L133.247 45.992L138.751 34.696H141.983Z" fill="#E01B37" />
</svg>

<svg viewBox="0 0 142 58" fill="none" xmlns="http://www.w3.org/2000/svg"><path d="M13.784.696c2.432 0 4.533.459 6.304 1.376 1.792.896 3.157 2.187 4.096 3.872.96 1.685 1.44 3.67 1.44 5.952 0 2.283-.48 4.267-1.44 5.952-.939 1.664-2.304 2.944-4.096 3.84-1.771.875-3.872 1.312-6.304 1.312H6.84V.696h6.944zm0 19.904c2.88 0 5.077-.757 6.592-2.272 1.514-1.536 2.272-3.68 2.272-6.432 0-2.773-.768-4.939-2.304-6.496-1.515-1.557-3.702-2.336-6.56-2.336H9.752V20.6h4.032zM35.257.696V23h-2.912V.696h2.912zM59.996 7.16c-.619-1.301-1.515-2.304-2.688-3.008-1.174-.725-2.539-1.088-4.096-1.088-1.558 0-2.966.363-4.224 1.088-1.238.704-2.219 1.728-2.944 3.072-.704 1.323-1.056 2.859-1.056 4.608 0 1.75.352 3.285 1.056 4.608.725 1.323 1.706 2.347 2.944 3.072 1.258.704 2.666 1.056 4.224 1.056 2.176 0 3.968-.65 5.376-1.952 1.408-1.301 2.229-3.061 2.464-5.28h-8.896v-2.368h12v2.24a11.178 11.178 0 01-1.728 5.056 10.863 10.863 0 01-3.872 3.616c-1.6.875-3.382 1.312-5.344 1.312-2.07 0-3.958-.48-5.664-1.44a10.927 10.927 0 01-4.064-4.064c-.982-1.728-1.472-3.68-1.472-5.856 0-2.176.49-4.128 1.472-5.856 1.002-1.75 2.357-3.104 4.064-4.064C49.254.931 51.142.44 53.212.44c2.368 0 4.458.587 6.272 1.76 1.834 1.173 3.168 2.827 4 4.96h-3.488zM73.798.696V23h-2.912V.696h2.912zm21.57 0v2.368h-6.08V23h-2.911V3.064h-6.112V.696h15.104zm19.649 17.344h-9.728L103.497 23h-3.072L108.489.824h3.36L119.881 23h-3.072l-1.792-4.96zm-.832-2.368l-4.032-11.264-4.032 11.264h8.064zm15.003 4.96h7.808V23h-10.72V.696h2.912v19.936z" fill="#000"/><path d="M15.057 52.04H5.33L3.537 57H.465L8.53 34.824h3.36L19.921 57H16.85l-1.792-4.96zm-.832-2.368l-4.032-11.264-4.032 11.264h8.064zm28.987-8.512c-.619-1.301-1.515-2.304-2.688-3.008-1.174-.725-2.539-1.088-4.096-1.088s-2.965.363-4.224 1.088c-1.238.704-2.219 1.728-2.944 3.072-.704 1.323-1.056 2.859-1.056 4.608 0 1.75.352 3.285 1.056 4.608.725 1.323 1.706 2.347 2.944 3.072 1.258.704 2.666 1.056 4.224 1.056 2.176 0 3.968-.65 5.376-1.952 1.408-1.301 2.23-3.061 2.464-5.28h-8.896v-2.368h12v2.24a11.18 11.18 0 01-1.728 5.056 10.864 10.864 0 01-3.872 3.616c-1.6.875-3.381 1.312-5.344 1.312-2.07 0-3.957-.48-5.664-1.44a10.925 10.925 0 01-4.064-4.064c-.982-1.728-1.472-3.68-1.472-5.856 0-2.176.49-4.128 1.472-5.856 1.003-1.75 2.357-3.104 4.064-4.064 1.707-.981 3.595-1.472 5.664-1.472 2.368 0 4.459.587 6.272 1.76 1.834 1.173 3.168 2.827 4 4.96h-3.488zm13.802-4.096v7.456h8.128v2.4h-8.128v7.68h9.088V57h-12V34.664h12v2.4h-9.088zM90.924 57h-2.912L76.3 39.24V57h-2.912V34.664H76.3l11.712 17.728V34.664h2.912V57zm6.756-11.168c0-2.176.491-4.128 1.472-5.856.982-1.75 2.315-3.115 4-4.096 1.707-.981 3.595-1.472 5.664-1.472 2.432 0 4.555.587 6.368 1.76 1.814 1.173 3.136 2.837 3.968 4.992h-3.488c-.618-1.344-1.514-2.379-2.688-3.104-1.152-.725-2.538-1.088-4.16-1.088-1.557 0-2.954.363-4.192 1.088-1.237.725-2.208 1.76-2.912 3.104-.704 1.323-1.056 2.88-1.056 4.672 0 1.77.352 3.328 1.056 4.672.704 1.323 1.675 2.347 2.912 3.072 1.238.725 2.635 1.088 4.192 1.088 1.622 0 3.008-.352 4.16-1.056 1.174-.725 2.07-1.76 2.688-3.104h3.488c-.832 2.133-2.154 3.787-3.968 4.96-1.813 1.152-3.936 1.728-6.368 1.728-2.069 0-3.957-.48-5.664-1.44-1.685-.981-3.018-2.336-4-4.064-.981-1.728-1.472-3.68-1.472-5.856zm44.303-11.136l-7.264 13.888V57h-2.912v-8.416l-7.296-13.888h3.232l5.504 11.296 5.504-11.296h3.232z" fill="#E01B37"/></svg>
